!!!!SEGMENT: pl-wtm--iii-40-641_krogulski-wladyslaw--elegia-na-smierc-stanislawa-moniuszki.krn
!!!cenid: 18xx:4414
!!!COM: Krogulski, Władysław
!!!COM-rismID: pe50042564
!!!CDT: 1843/08/10-1934/12/26
!!!CNT: Polish
!!!OTL: Elegia na śmierć Stanisława Moniuszki
!!!PDT:
!!!AGN:
!!!SMS-siglum: PL-Wtm
!!!SMS-shelfmark: III.40.641
!!!SMS-shelfwork: W
!!!SMS-variant:
!!!SMS-altvar:
!!!NIFC-rismSourceID: 1001130396
!!!NIFC-rismChildID: 1001130396
!!!NIFC-islandoraID: pl-wtm:12194
!!!URL-pdf-islandora: https://repozytorium.nifc.pl/islandora/object/pl-wtm:12194/datastream/PDF/view
!!!URL-scan: https://polish.musicsources.pl/pl/lokalizacje/galeria/druki-muzyczne/16486/2 @EN{Scan on Polish Music Sources Website} @PL{Skany w portalu Dziedzictwo Muzyki Polskiej w otwartym dostępie}
!!!ONB-nifc:
!!!OMD: Lento.
!!!AIN: 1 piano
!!!key:
**kern	**kern	**dynam
*part2	*part1	*part1
*staff2	*staff1	*
*	*I"PIANO.	*
*	*I'	*
*	*Ipiano	*
*	*ICklav	*
*	*IGsolo	*
*clefF4	*clefG2	*
*k[b-]	*k[b-]	*
*d:	*d:	*
*M12/8	*M12/8	*
=1	=1	=1
*tremolo	*	*
*ped	*	*
!LO:TX:b:i:t=tremolo.	!	!LO:HP:a
32GGG#X\LLL 32GG#X	[4.F</ [>4.Bn< [<4.d [>4.f	sfz >
32GGG#\ 32GG#	.	.
32GGG#\ 32GG#	.	.
32GGG#\ 32GG#	.	.
32GGG#\ 32GG#	.	.
32GGG#\ 32GG#	.	.
32GGG#\ 32GG#	.	.
32GGG#\ 32GG#	.	.
32GGG#\ 32GG#	.	.
32GGG#\ 32GG#	.	.
32GGG#\ 32GG#	.	.
32GGG#\ 32GG#	.	.
32GGG#\ 32GG#	(4F</] 4B<] 4d] 4f]	.
32GGG#\ 32GG#	.	.
32GGG#\ 32GG#	.	.
32GGG#\ 32GG#	.	.
32GGG#\ 32GG#	.	.
32GGG#\ 32GG#	.	.
32GGG#\ 32GG#	.	.
32GGG#\ 32GG#	.	.
32GGG#\ 32GG#	8E</ 8e	.
32GGG#\ 32GG#	.	.
32GGG#\ 32GG#	.	.
32GGG#\JJJ 32GG#	.	.
*Xtremolo	*	*
*Xped	*	*
2.r	4.D</) 4.d	]
.	4.r	.
=2	=2	=2
*tremolo	*	*
*ped	*	*
!LO:TX:b:i:t=simile.	!	!LO:HP:a
32AAA\LLL 32AA	[<4.F</ [>4.A< [4.d [4.f	mf >
32AAA\ 32AA	.	.
32AAA\ 32AA	.	.
32AAA\ 32AA	.	.
32AAA\ 32AA	.	.
32AAA\ 32AA	.	.
32AAA\ 32AA	.	.
32AAA\ 32AA	.	.
32AAA\ 32AA	.	.
32AAA\ 32AA	.	.
32AAA\ 32AA	.	.
32AAA\ 32AA	.	.
32AAA\ 32AA	(4F</] 4A<] 4d] 4f]	.
32AAA\ 32AA	.	.
32AAA\ 32AA	.	.
32AAA\ 32AA	.	.
32AAA\ 32AA	.	.
32AAA\ 32AA	.	.
32AAA\ 32AA	.	.
32AAA\ 32AA	.	.
32AAA\ 32AA	8E</ 8e	.
32AAA\ 32AA	.	.
32AAA\ 32AA	.	.
32AAA\JJJ 32AA	.	.
*Xtremolo	*	*
*Xped	*	*
2.r	4.D</) 4.d	]
!	!	!LO:HP:t=dim&colon;
.	4.r	>
=3	=3	=3
*tremolo	*	*
*ped	*	*
!LO:TX:b:i:t=simile.	!	!LO:HP:a
32BBBn\LLL 32BBn	[4.Fn</ [>4.G#X< [>4.Bn< 4.d [>4.f	>
32BBB\ 32BB	.	.
32BBB\ 32BB	.	.
32BBB\ 32BB	.	.
32BBB\ 32BB	.	.
32BBB\ 32BB	.	.
32BBB\ 32BB	.	.
32BBB\ 32BB	.	.
32BBB\ 32BB	.	.
32BBB\ 32BB	.	.
32BBB\ 32BB	.	.
32BBB\ 32BB	.	.
32BBB\ 32BB	(4F</] 4G#<] 4B<] 4d 4f]	.
32BBB\ 32BB	.	.
32BBB\ 32BB	.	.
32BBB\ 32BB	.	.
32BBB\ 32BB	.	.
32BBB\ 32BB	.	.
32BBB\ 32BB	.	.
32BBB\ 32BB	.	.
32BBB\ 32BB	8E</ 8e	.
32BBB\ 32BB	.	.
32BBB\ 32BB	.	.
32BBB\JJJ 32BB	.	.
*Xtremolo	*	*
*Xped	*	*
2.r	4.D</) 4.d	]
.	4.r	.
!!LO:LB:g=original
=4	=4	=4
*ped	*	*
!	!LO:TX:b:i:t=ad libitum.	!
(4.AAA^>/	4.r	.
!	!	!LO:HP:b=2
8DD/L	4r	<
8FF/	.	.
8AA/J	8r	.
8D/L	4r	.
8F/	.	.
8A/J)	8r	[
!LO:TX:b:i:t=rit&colon;	!LO:TX:a:t=m.d.	!
4r	N(8f^<\L	.
*Xped	*	*
.	8e^<\	.
8r	8d^<\J	.
=5	=5	=5
*ped	*	*
4.AA\ 4.E 4.G	8c#X\L	.
.	8B-X\	.
.	8A\J	.
!LO:TX:a:t=m.g.	!	!LO:HP:b=2
8G\L	4r	>
8F\	.	.
8E\J	8r	.
8D\L	4r	.
8C#X\	.	.
8BB-X\J	8r	.
8AA\L	4A/	.
8GG\	.	.
!	!	!LO:DY:rj
8EE\JN)	8A/	]] p
*Xped	*	*
=6	=6	=6
!	!LO:TX:a:i:t=lugubre.	!
4.DD\ 4.FF 4.AA 4.D	4.F/ 4.A 4.d	.
4DD\ 4FF 4AA 4D	4F/ 4A 4d	.
!	!LO:TX:a:t=m.d.	!
8DD\ 8FF 8AA 8D	8F</ 8A<	.
4.DD\ 4.FF 4.AA 4.D	4.F</ 4.A<	.
4.DD\ 4.GG 4.C#X	(4E</ 4A<	.
.	8G</)	.
!!LO:LB:g=original
=7	=7	=7
4.DD\ 4.FF 4.AA	4.D</ 4.F<	.
4.DD\ 4.GG 4.AA	(4C#X</ 4F<	.
.	8E</)	.
4.DD\ 4.FF 4.AA	4.D</	.
!	!	!LO:HP:a
4.DD\ 4.AA	(4F</ 4d	<
.	8A</) 8e	[[
=8	=8	=8
4.DD/ 4.FF 4.AA 4.D	4.d/ 4.f	.
4.DD/ 4.FF 4.AA 4.D	(>4A/ 4f	.
.	8d/)	.
4.DD/ 4.GG 4.BB- 4.D	4.B-/ 4.g	.
4.DD/ 4.GG 4.BB- 4.D	(>4G/ 4g	.
.	8d/)	.
=9	=9	=9
4.DD/ 4.FF 4.AA 4.D	4.A/ 4.d 4.f	.
4AAA/ 4AA	4r	pp
8AAA/ 8AA	8r	.
4.AAA/ 4.AA	4r	.
.	8r	.
!	!	!LO:HP:a
4AAA/ 4AA	4A/	<
8AAA/ 8AA	8G/ 8Bn	[[
=10	=10	=10
4.AAA/ 4.AA	4.G/ 4.A 4.c#X	.
!	!	!LO:HP:t=cres_cen_do.:ext=ud
4GGG/ 4GG	4G/ 4A 4c#	<
8GGG/ 8GG	8G/ 8A 8c#	.
4.FFF/ 4.FF	4.F/ 4.A 4.d	.
*coll8ba	*	*
!LO:TX:b:t=8	!	!
4.EE/ 4.EEEyy	4.G/ 4.c#X 4.e	.
!!LO:LB:g=original
=11	=11	=11
*	*^	*
!LO:TX:b:t=8	!	!	!LO:DY:a
[4.DD/ 4.DDDyy	[4.F</ [>4.A-X< [4.Bn [<4.d [4.f	4.ryy	sfz
4.DD/] 4.DDDyy	4.F</] 4.A-<] 4.B] 4.d] 4.f]	4f/	.
.	.	8e/	.
*Xcoll8ba	*	*	*
[4.GGG#X\ [<4.GG#X	[4.D</ [>4.F< [>4.A-X< [<4.Bn [4.d	4.ryy	.
4GGG#\] 4GG#]	4D</] 4F<] 4A-X<] 4Bn] 4d]	4.ryy	.
8r	8r	.	p
=12	=12	=12	=12
!	!LO:TX:a:t=m.d.	!	!
4.AAA\ 4.DD 4.FF 4.AA	4.D</ 4.F< 4.A<	2.ryy	.
4.AAA\ 4.DD 4.FF 4.AA	4.F</ 4.A< 4.d	.	.
4.AAA\ 4.EE 4.GG 4.AA	(>4d/	4.G</ 4.A<	.
.	8c#X/)	.	.
4.AAA\ 4.EE 4.GG 4.AA	(<4f/	4.G</ 4.A< 4.c#	.
.	8e/)	.	.
=13	=13	=13	=13
4.DD\ 4.FF 4.AA 4.D	4.<F/ 4.A< 4.d	4.ryy	.
4.AAA\ 4.CC 4.EE 4.AA	(4e/	4.G</ 4.A< 4.c#X	.
.	8f/)	.	.
4.DD\ 4.FF 4.AA 4.D	4.F</ 4.A< 4.d	2.ryy	.
4r	4r	.	mf
8r	8r	.	.
=14	=14	=14	=14
!	!	!	!LO:HP:b=2:t=crescendo.
4.D\ 4.F#X 4.A	4.c/ 4.d	4.ryy	<
4.D\ 4.F# 4.A	(4e-X/	4.c/	.
.	8d/)	.	.
4.D\ 4.F# 4.c	4.d/ 4.f#X	2.ryy	.
4.D\ 4.F# 4.c	4.d/ 4.f# 4.a	.	.
*	*v	*v	*
!!LO:LB:g=original
=15	=15	=15
[4.G\ [4.B-	[4.d/ [>4.g [>4.cc	sfz
4G\] 4B-]	4d/] 4g] 4cc]	.
!	!	!LO:HP:b=2:t=diminuendo.
(8d\	(8b-/	>
4c\	4a/	.
8B-\	8g/	.
4A\	4f/	.
8G\)	8e/)	.
=16	=16	=16
*	*^	*
4.AA^>/	4r	2.ryy	.
.	8r	.	.
4.D\ 4.F	4.A/ 4.d	.	.
4.AA\ 4.E	(4d/	4.G/	.
.	8c#X/)	.	.
4.AA\ 4.G	(4f/	4.A/ 4.c#	.
.	8e/)	.	.
=17	=17	=17	=17
4.D\ 4.F	4.A/ 4.d	4.ryy	.
((4.AA\ 4.G	(<4e/	4.A/ 4.c#X	.
.	8f/)	.	.
4.D\)) 4.F	4.A/ 4.d	2.ryy	.
4AA/	4r	.	pp
8AA/	8r	.	.
=18	=18	=18	=18
4.AAA/	4r	4.ryy	.
.	8r	.	.
!	!	!	!LO:DY:a
((4.AA\ 4.G	(<4e/	4.A/ 4.c#X	pp
.	8f/)	.	.
4.D\)) 4.F	4.A/ 4.d	2.ryy	.
4AA/	4r	.	pp
8AA/	8r	.	.
=19	=19	=19	=19
4.AAA/	4r	4.ryy	.
.	8r	.	.
!	!	!	!LO:DY:a
((4.AA\ 4.G	(<4e/	4.A/ 4.c#X	ppp
.	8f/)	.	.
!LO:TX:b:i:t=rallent.	!	!	!
4.D\)) 4.F	4.A/ 4.d	2.ryy	.
4D\ 4F	4A/ 4d	.	.
8D\ 8F	8A/ 8d	.	.
*	*v	*v	*
!!LO:PB:g=original
=20||	=20||	=20||
*M4/4	*M4/4	*
*met(c)	*met(c)	*
!	!LO:TX:a:i:t=Listesso tempo.	!
8DD'>/L	4F/ 4A 4d	.
!LO:TX:b:i:t=forte e ritard&colon;	!	!
8D'>/	.	.
8C'>/	4r	.
8BB-'>/J	.	.
8AA'>/L	8r	p
8GG'>/	(8A/L	.
8FF'>/	8G/ 8Bn	.
8EE'>/J	8G/J) 8A 8c#X	.
=21||	=21||	=21||
*M6/8	*M6/8	*
*ped	*	*
!	!LO:TX:b:i:t=una Corda.	!
!	!LO:TX:a:i:t=Ricordenza Allegretto.	!LO:DY:b=2:rj
(8DD/L	(>4F/ 4d	pp
8AA/	.	.
8D/J)	8F/ 8d	.
(8DD/L	8A/L 8f	.
8AA/	8G/ 8e	.
8D/J)	8A/J 8f	.
=22	=22	=22
(8DD/L	4F/ 4d	.
8AA/	.	.
8D/J)	8F/ 8A	.
(8DD/L	8F/L 8A	.
8AA/	8G/	.
8D/J)	8F/J)	.
*Xped	*	*
=23	=23	=23
(8DD/L	(>4G/	.
8AA/	.	.
8D/J	8B-/	.
8C#X/L	8G/L 8A	.
8BBn/	8G/ 8Bn	.
8AA/J)	8G/J 8A 8c#X	.
!!LO:LB:g=original
=24	=24	=24
(8DD/L	4F/) 4A 4d	.
8AA/	.	.
8D/J)	8r	.
!	!	!LO:HP:a
(8DD/L	(8A/L	<
8AA/	8G/ 8Bn	.
8D/J)	8G/J) 8A 8c#X	[
=25	=25	=25
*ped	*	*
(8DD/L	(>4F/ 4d	.
8AA/	.	.
8D/J)	8F/ 8d	.
(8DD/L	8A/L 8f	.
8AA/	8G/ 8e	.
8D/J)	8A/J 8f	.
=26	=26	=26
(8DD/L	4F/ 4d	.
8AA/	.	.
8D/J)	8F/ 8A	.
(8DD/L	8F/L 8A	.
8AA/	8G/	.
*Xped	*	*
8D/J)	8F/J) 8A	.
=27	=27	=27
*	*^	*
(8DD/L	(>(4G/ 4B-	4.ryy	.
8AA/	.	.	.
*ped	*	*	*
8D/J)	8B-/) 8d	.	.
!	!	!	!LO:DY:a
!	!	!	!LO:HP:a
(8GGG#X/L	(<8.f/L	4F\ 4Bn 4d	sfz <
8GG#X/	.	.	.
.	16e/K)	.	.
8GGG#/J)	8d/J)	8F\ 8B 8d	[
*Xped	*	*	*
*	*v	*v	*
!!LO:LB:g=original
=28||	=28||	=28||
!	!LO:TX:b:t=tre Corda.	!
!	!LO:TX:a:i:t=Mosso.	!
8.AAA/L 8.AA	8.A/L	.
16BBB-/K 16BB-	16B-/K	.
8AAA/J 8AA	8A/J	.
8.AAA/L 8.AA	8.A/L	.
16BBB-/K 16BB-	16B-/K	.
8AAA/J 8AA	8A/J	.
=29	=29	=29
8.AAA/L 8.AA	8.A/L	.
16BBB-/K 16BB-	16B-/K	.
8AAA/J 8AA	8A/J	.
8DD^/L 8D	8A^>/L 8f 8a	.
8EE^/ 8E	8c#X^>/ 8e 8g	.
8FF^/J 8F	8d^>/J 8f	.
=30	=30	=30
8.AA^/L 8.A	8.c#X^>/L 8.e 8.a	.
16BB-/K 16B-	16b-/K	.
8AA/J 8A	8a/J	.
8.AA/L 8.A	8.a/L	.
16BB-/K 16B-	16b-/K	.
8AA/J 8A	8a/J	.
=31	=31	=31
8.AA/L 8.A	8.a/L	.
16BB-/K 16B-	16b-/K	.
8AA/J 8A	8a/J	.
8DD^/L 8D	8a^\L 8dd 8ff 8aa	.
8EE^/ 8E	8a^\ 8cc#X 8ee 8gg	.
8FF^/J 8F	8a^\J 8dd 8ff	.
=32	=32	=32
8.AA^/L 8.A	8.a^\L 8.cc#X 8.ee	.
16BB-/K 16B-	16b-\K	.
8AA/J 8A	8a\J	.
!	!	!LO:HP:t=dimi_nuendo:ext=ud
8.AA/L 8.A	8.a/L	>
16BB-/K 16B-	16b-/K	.
8AA/J 8A	8a/J	.
!!LO:LB:g=original
=33	=33	=33
*	*	*^
!LO:TX:b:i:t=Meno.	!	!	!
8.AA/L 8.A	8.a/L	.	.
16BB-/K 16B-	16b-/K	.	.
8AA/J 8A	8a/J	.	.
!	!	!LO:DY:a	!
!LO:TX:b:i:t=una Corda.	!	!LO:HP:a	!LO:DY:b=2
(8A/L	(8a/L	pp <	pp
8G/	8g/ 8bn	.	.
8E/J)	8g/J) 8a 8cc#X	[[	.
*	*	*v	*v
=34	=34	=34
*ped	*	*
!	!LO:TX:a:B:t=a Tempo 1	!
(8D\L	(4f/ 4dd	.
8A\	.	.
!LO:TX:b:i:t=l`accompagnamento	!LO:N:vis=4	!
8d\J)	8f/ 8dd	.
(8C\L	8a/L 8ff	.
8G\	8g/ 8ee	.
8c\J)	8a/J 8ff	.
=35	=35	=35
(8BB-\L	4f/ 4dd	.
8F\	.	.
8B-\J)	8f/ 8a	.
!	!	!LO:DY:b=2
(8AA\L	8f/L 8a	ppp
8F\	8g/	.
8A\J)	8f/J) 8a	.
*Xped	*	*
=36	=36	=36
(8GG\L	((4g/ 4b-	.
8D\	.	.
8G\J)	8b-/) 8dd	.
!	!	!LO:HP:a
(8C\L	8e/L 8cc	<
8B-\	8f/ 8dd	.
8c\J)	8g/J 8ee	[
=37	=37	=37
!LO:TX:b:i:t=tre Corde ma	!	!
(8F\L	4.a/) 4.ff	.
8c\	.	.
8f\J)	.	.
(8F\L	4r	.
8c\	.	.
!	!	!LO:DY:b=2
8f\J)	8r	pp
!!LO:LB:g=original
=38	=38	=38
(8F\L	(8cc\L 8aa	.
8c\	8b-\ 8gg	.
8f\J)	8a\J 8ff	.
(8D\L	4a\ 4ff	.
8A\	.	.
!	!LO:N:vis=4	!
8d\J)	8a\ 8ff	.
=39	=39	=39
(8D\L	8a\L 8ff	.
8A\	8g\ 8ee	.
8d\J)	8a\J 8ff	.
(8BB-\L	4.f/) 4.dd	.
8F\	.	.
8B-\J)	.	.
=40	=40	=40
!	!	!LO:HP:a
(8GG/L	(8f/L 8g	<
8D/	8f/ 8a	.
8G/J)	8f/J 8g 8b-	.
(8C/L	4.e/) 4.g 4.cc	[
8G/	.	.
8c/J)	.	.
=41	=41	=41
*	*	*^
!	!LO:TX:b:i:t=rit molto	!LO:DY:a:rj	!LO:DY:b=2:rj
8CC^/L 8C	8cc^\L 8ee 8gg 8bb-	ff	ff
!	!LO:TX:a:i:t=lento.	!	!
8DD^/ 8D	8cc^\ 8ff 8aa	.	.
8EE^/J 8E	8b-^\J 8cc 8ee 8gg	.	.
4FF^/ 4F	4a^\ 4cc 4ff	.	.
8r	8r	.	.
*	*	*v	*v
=42	=42	=42
!	!LO:TX:a:i:t=Mosso.	!LO:DY:b=2
8.AA/L 8.A	8.a/L	ff
16BB-/K 16B-	16b-/K	.
8AA/J 8A	8a/J	.
8.AA/L 8.A	8.a/L	.
16BB-/K 16B-	16b-/K	.
8AA/J 8A	8a/J	.
!!LO:LB:g=original
=43	=43	=43
8.AA/L 8.A	8.a/L	.
16BB-/K 16B-	16b-/K	.
8AA/J 8A	8a/J	.
8DD^/L 8D	8a^\L 8dd 8ff 8aa	.
8EE^/ 8E	8a^\ 8cc#X 8ee 8gg	.
8FF^/J 8F	8a^\J 8dd 8ff	.
=44	=44	=44
8.AA^/L 8.A	8.a^\L 8.cc#X 8.ee	.
16BB-/K 16B-	16b-\K	.
8AA/J 8A	8a\J	.
8.AA/L 8.A	8.a/L	.
16BB-/K 16B-	16b-/K	.
8AA/J 8A	8a/J	.
=45	=45	=45
8.AA/L 8.A	8.a/L	.
16BB-/K 16B-	16b-/K	.
8AA/J 8A	8a/J	.
8DD^/L 8D	8A^>/L 8f 8a	.
8EE^/ 8E	8c#X^>/ 8e 8g	.
8FF^/J 8F	8d^>/J 8f	.
=46	=46	=46
8.AA^/L 8.A	8.c#X^>/L 8.e 8.a	.
16BB-/K 16B-	16b-/K	.
8AA/J 8A	8a/J	.
!	!	!LO:HP:t=dim&colon;
8.AAA/L 8.AA	8.a/L	>
16BBB-/K 16BB-	16b-/K	.
!	!LO:TX:b:i:t=e	!
8AAA/J 8AA	8a/J	.
=47	=47	=47
!	!LO:TX:b:i:t=rit&colon;	!
8.AAA/L 8.AA	8.a/L	.
16BBB-/K 16BB-	16b-/K	.
8AAA/J 8AA	8a/J	.
4AAA/ 4AA	4a/	.
8r	8r	.
!!LO:PB:g=original
=48||	=48||	=48||
*M4/4	*M4/4	*
*met(c)	*met(c)	*
!	!LO:TX:a:i:t=Funebre.	!
4D\ 4F 4A	4f/ 4a	.
4D\ 4F 4A	8.d/L 8.f	.
.	16e/Jk 16g	.
4D\ 4F 4A	4f/ 4a	.
4D\ 4F 4A	4f^/ 4a 4ff	.
=49	=49	=49
4D\ 4G 4B-X 4c#X	4g/ 4b- 4ee	.
!	!LO:N:n=1:vis=4	!
!	!LO:N:n=2:vis=4	!
4D\ 4G 4B- 4c#	8.g^/L 8.b- 8.ff	.
.	16ee/Jk	.
4D\ 4F 4A 4d	4f/ 4a 4dd	.
4D\ 4F 4A 4d	4r	.
=50	=50	=50
4D\ 4F 4A 4d	4f/ 4a	.
4D\ 4F 4A 4d	8.f/L 8.a	.
!	!	!LO:HP:t=cresc&colon;
.	16f/Jk 16a	<
4C\ 4F 4A 4c	4.f/ 4.a 4.cc	.
4C\ 4F 4A 4c	.	.
.	8f/ 8a 8cc	.
=51	=51	=51
4C\ 4G 4B-	(8.e/L 8.g 8.dd	>
.	16cc/Jk	.
4C\ 4G 4B-	8.b-/L	.
.	16g/Jk	.
4F\ 4A	4f/)	.
4AA\ 4C#X 4E 4A	4c#X^/ 4e 4g 4a	]
=52	=52	=52
4D\ 4F 4A	4f/ 4a	.
4D\ 4F 4A	(8.d/L 8.f	.
.	16e/Jk 16g	.
4D\ 4F 4A	4f/) 4a	.
4D\ 4F 4A	4f^/ 4a 4ff	.
!!LO:LB:g=original
=53	=53	=53
4D\ 4G 4B- 4c#X	4g/ 4b- 4ee	.
4D\ 4G 4B- 4c#	8.g^/L 8.b- 8.ff	.
.	16ee/Jk	.
4D\ 4F 4A 4d	4f/ 4a 4dd	.
4D\ 4F 4A 4d	4r	.
=54	=54	=54
4C\ 4F 4A 4c	4f/ 4a 4cc	.
!	!	!LO:HP:t=cresc&colon; molto.
4C\ 4F 4A 4c	8.a/L 8.cc 8.ff	<
.	16a/Jk 16cc 16ff 16aa	.
4C\ 4F 4A 4c	4.a/ 4.cc 4.ff 4.aa	.
4C\ 4F 4A 4c	.	.
.	8a\ 8cc 8ff 8aa	.
=55	=55	=55
4C\ 4E 4G 4c	4b-\ 4cc 4ee 4gg	.
4C\ 4E 4G 4c	8.b-^<\L 8.cc 8.ee 8.aa	.
.	16b-\Jk 16cc 16ee 16aa	.
4F\ 4A 4c	4a\ 4cc 4ff	.
4AA\ 4E 4A	(8.g\L 8.a 8.cc#X 8.ff	>
.	16ee\Jk	]
=56	=56	=56
4D\ 4F 4A 4d	4f/) 4a 4dd	.
4GG/ 4BB- 4D 4G	8.d/L 8.g 8.dd	>
.	16d/Jk 16g 16b-	]
4AA/ 4D 4F 4A	4d/ 4f 4a	.
*8ba	*	*
!LO:TX:b:i:t=loco	!	!
4AAA/ 4EE 4GG 4AA	4c#X/ 4e 4a	.
*X8ba	*	*
!!LO:LB:g=original
=57||	=57||	=57||
!!LO:TX:t=P:problem:klamra łukowa i cyfra 3:global
!	!LO:TX:a:B:t=Grave.	!LO:DY:b=2:rj
!	!	!LO:HP:a
8DD/	((2F/ 2A 2d	ff >
!LO:TUP:b	!	!
24AA/LL	.	.
24AA/	.	.
24AA/JJ	.	.
8AA/L	.	.
8AA/J	.	.
4AAA/	4G/)) 4c#X	]
4AA/	4G/ 4A	.
=58	=58	=58
8DD/	((2F/ 2A 2d	.
!LO:TUP:b	!	!
24AA/LL	.	.
24AA/	.	.
24AA/JJ	.	.
8AA/L	.	.
8AA/J	.	.
4AAA/	4G/)) 4c#X	.
4AA/	4G/ 4A	.
=59	=59	=59
!	!	!LO:HP:a:t=cresc molto e marcato.:ext=s
8DD/	4F/ 4A 4d	<
!LO:TUP:a	!	!
24D\LL	.	.
24D\	.	.
24D\JJ	.	.
!LO:TX:b:i:t=poco rit.	!	!
8D\L	8G/L 8A 8e	.
8D\J	8F/J 8A 8f	.
4BB-\ 4D	4G/ 4B- 4g	.
4AA\ 4D	4A/ 4c 4d 4a	.
!!LO:LB:g=original
=60	=60	=60
8GGG/	[<4c#X/ [<4d#X [>4f#X [>4a [>4cc	.
!LO:TUP:b	!	!LO:DY:b=2:rj
24GG/LL	.	sfz
24GG/	.	.
24GG/JJ	.	.
8GG/L	4c#/] 4d#] 4f#] 4a] 4cc]	.
8GG/J	.	.
4GG/	4B-/ 4dn 4g 4b-	.
4G^\	8r	.
.	8d/ 8b-	.
=61	=61	=61
!	!	!LO:HP:a
8CC/	((2c^/ 2e 2a	>
!LO:TUP:b	!	!
24C/LL	.	.
24C/	.	.
24C/JJ	.	.
8C/L	.	.
8C/J	.	.
4C/	4B-/)) 4e 4g	]
4C/	8r	.
.	8c/ 8a	.
=62	=62	=62
!	!	!LO:HP:a
8FF/	((2B-^/ 2c 2g	>
!LO:TUP:b	!	!
24C/LL	.	.
24C/	.	.
24C/JJ	.	.
8C/L	.	.
8C/J	.	.
8FF/	4A/)) 4f	]
!LO:TUP:b	!	!LO:DY:t=forte.
24AA/LL	.	f
24AA/	.	.
24AA/JJ	.	.
8AA/L	4r	.
8AA/J	.	.
!!LO:LB:g=original
=63	=63	=63
8AAA/	4A/ 4f	.
!LO:TUP:b	!	!
24AA/LL	.	.
24AA/	.	.
24AA/JJ	.	.
8AA/L	(8.G/L 8.e	.
8AA/J	.	.
.	16F/Jk) 16d	.
4AAA/	4G/ 4e	.
4AA/	4A/ 4f	.
=64	=64	=64
4DD/	2.F/ 2.d	.
8.AA/L	.	p
16AA/Jk	.	.
4AA/	.	.
4AAA/	(8G/L 8e	.
.	8A/J) 8f	.
=65	=65	=65
4DD/	2.F/ 2.d	.
8.AA/L	.	pp
16AA/Jk	.	.
4AA/	.	.
4AAA/	(8G/L 8e	.
.	8A/J) 8f	.
!!LO:LB:g=original
=66	=66	=66
*M3/4	*M3/4	*
!LO:TX:b:i:t=dolcissimo ma poco marc&colon; e poco dim&colon; morendo e rallentando molto.	!	!
!	!LO:TX:a:i:t=Adagio.	!LO:DY:rj
(8DD/L	2.F/ 2.A 2.d	ppp
8EE/	.	.
8FF/	.	.
8AA/	.	.
8GG/	.	.
8EE/J)	.	.
=67	=67	=67
(8CC#X/L	2.G/ 2.A 2.c#X 2.e	.
8DD/J	.	.
4FF/	.	.
8EE/L	.	.
8AAA/J)	.	.
=68	=68	=68
!	!	!LO:DY:b=2:rj
(8DD/L	[2.F/ [>2.A [>2.d	pp
8EE/	.	.
8FF/	.	.
8BB-/	.	.
8AA/	.	.
8FF/J)	.	.
=69	=69	=69
!	!	!LO:DY:b=2:rj
(8DD/L	2.F/] 2.A] 2.d]	ppp
8EE/	.	.
8FF/	.	.
8BB-/	.	.
8AA/	.	.
8FF/J	.	.
=70	=70	=70
[2.DD/)	[2.d/ [2.f [2.a [2.dd	ppp
=71	=71	=71
4DD/]	4d/] 4f] 4a] 4dd]	.
4r	4r	.
4r	4r	.
==	==	==
*-	*-	*-
!!!system-decoration: {(s1,s2)}
!!!RDF**kern: < = below
!!!RDF**kern: > = above
!!!RDF**kern: N = linked
!!!ENC: Filip Voros
!!!END: 2023-07-09
!!!ENC: Marta Chmielewska
!!!END: 2023-07-17
!!!YEC: Copyright 2022 Narodowy Instytut Fryderyka Chopina (https://polishscores.org)
!!!YEM: License CC-BY-4.0 (https://creativecommons.org/licenses/by/4.0)
